X:0860
T:Frenet Ha'.
M:3/4
L:1/8
Q:1/4=72 "Slow"
I: :: ||
N:Aird prints bar 8 as |{G}A4:| (i.e. no sharp)
Z:Jack Campin * www.campin.me.uk * 2009
K:A Minor
EG |A2  A2      B>d|   e2 e2(ef/g/)|edcB A>d| {c}B4 \
A^G|A2  A2      Bd |   e2 e2(ef/g/)|edcB A^G|{^G}A4:|
eg |a2  a2      ba |{a}g2 e2(ef/g/)|edcB A>d| {c}B4 \
e>g|a2 (ab/c'/) ba |   g2 e2(ef/g/)|edcB A^G|{^G}A4
e>g|a2  a2      ba |   g2 e2(ef/g/)|edcB A`d| {c}B4 \
A^G|A2  AB``````cd |   e2 ef`ge    |edcB A^G|{^G}A4|]

